packages/kaspersky-hexa-ui-icons/src/iconsSVGs/28x20/FlagRs.svg

<svg width="28" height="20" viewBox="0 0 28 20" fill="none" xmlns="http://www.w3.org/2000/svg">
<g clip-path="url(#clip0_5138_1685)">
<path d="M0 2C0 0.895431 0.895431 0 2 0H26C27.1046 0 28 0.895431 28 2V18C28 19.1046 27.1046 20 26 20H2C0.895431 20 0 19.1046 0 18V2Z" fill="white"/>
<mask id="mask0_5138_1685" style="mask-type:luminance" maskUnits="userSpaceOnUse" x="0" y="0" width="28" height="20">
<rect width="28" height="20" rx="2" fill="white"/>
</mask>
<g mask="url(#mask0_5138_1685)">
<path d="M26 19.5V20H2V19.5H26ZM27.5 18V2C27.5 1.17157 26.8284 0.5 26 0.5H2C1.17157 0.5 0.5 1.17157 0.5 2V18C0.5 18.8284 1.17157 19.5 2 19.5V20C0.895431 20 0 19.1046 0 18V2C2.57702e-07 0.895431 0.895431 0 2 0H26C27.1046 0 28 0.895431 28 2V18C28 19.1046 27.1046 20 26 20V19.5C26.8284 19.5 27.5 18.8284 27.5 18Z" fill="#F5F5F5"/>
<path fill-rule="evenodd" clip-rule="evenodd" d="M0 13.3333H28V6.66667H0V13.3333Z" fill="#17508F"/>
<path fill-rule="evenodd" clip-rule="evenodd" d="M0 6.66667H28V0H0V6.66667Z" fill="#E1444D"/>
</g>
<g clip-path="url(#clip1_5138_1685)">
<path fill-rule="evenodd" clip-rule="evenodd" d="M6 10C6 9.35495 6.34366 7.91785 6.5375 7.15857C6.61181 6.86752 6.87495 6.66667 7.17534 6.66667H10.1592C10.459 6.66667 10.7218 6.86671 10.7964 7.15711C10.9903 7.91196 11.3333 9.34021 11.3333 10C11.3333 10.745 10.833 12.7008 10.6992 13.2105C10.6777 13.2924 10.6412 13.3677 10.5872 13.433C10.3317 13.7426 9.49918 14.6667 8.66667 14.6667C7.83364 14.6667 7.00061 13.7414 6.74565 13.4324C6.69202 13.3675 6.65559 13.2927 6.63405 13.2113C6.50018 12.7052 6 10.7635 6 10Z" fill="white"/>
<mask id="mask1_5138_1685" style="mask-type:luminance" maskUnits="userSpaceOnUse" x="6" y="6" width="6" height="9">
<path fill-rule="evenodd" clip-rule="evenodd" d="M6 10C6 9.35495 6.34366 7.91785 6.5375 7.15857C6.61181 6.86752 6.87495 6.66667 7.17534 6.66667H10.1592C10.459 6.66667 10.7218 6.86671 10.7964 7.15711C10.9903 7.91196 11.3333 9.34021 11.3333 10C11.3333 10.745 10.833 12.7008 10.6992 13.2105C10.6777 13.2924 10.6412 13.3677 10.5872 13.433C10.3317 13.7426 9.49918 14.6667 8.66667 14.6667C7.83364 14.6667 7.00061 13.7414 6.74565 13.4324C6.69202 13.3675 6.65559 13.2927 6.63405 13.2113C6.50018 12.7052 6 10.7635 6 10Z" fill="white"/>
</mask>
<g mask="url(#mask1_5138_1685)">
<path d="M11.3333 7.33334L6.00001 14" stroke="#E1444D" stroke-width="1.33333" stroke-linecap="square"/>
<path d="M6 7.33334L11.3333 14" stroke="#E1444D" stroke-width="1.33333" stroke-linecap="square"/>
</g>
</g>
</g>
<defs>
<clipPath id="clip0_5138_1685">
<rect width="28" height="20" fill="white"/>
</clipPath>
<clipPath id="clip1_5138_1685">
<rect width="6" height="8" fill="white" transform="translate(5.33334 6.66667)"/>
</clipPath>
</defs>
</svg>

<svg xmlns="http://www.w3.org/2000/svg" width="28" height="20" fill="none" viewBox="0 0 28 20"><g clip-path="url(#a)"><path fill="#fff" d="M0 2C0 .8954.8954 0 2 0h24c1.1046 0 2 .8954 2 2v16c0 1.1046-.8954 2-2 2H2c-1.1046 0-2-.8954-2-2z"/><mask id="b" width="28" height="20" x="0" y="0" maskUnits="userSpaceOnUse" style="mask-type:luminance"><rect width="28" height="20" fill="#fff" rx="2"/></mask><g mask="url(#b)"><path fill="#f5f5f5" d="M26 19.5v.5H2v-.5zm1.5-1.5V2c0-.8284-.6716-1.5-1.5-1.5H2C1.1716.5.5 1.1716.5 2v16c0 .8284.6716 1.5 1.5 1.5v.5c-1.1046 0-2-.8954-2-2V2C0 .8954.8954 0 2 0h24c1.1046 0 2 .8954 2 2v16c0 1.1046-.8954 2-2 2v-.5c.8284 0 1.5-.6716 1.5-1.5"/><path fill="#17508f" fill-rule="evenodd" d="M0 13.3333h28V6.6667H0z" clip-rule="evenodd"/><path fill="#e1444d" fill-rule="evenodd" d="M0 6.6667h28V0H0z" clip-rule="evenodd"/></g><g clip-path="url(#c)"><path fill="#fff" fill-rule="evenodd" d="M6 10c0-.645.3437-2.0822.5375-2.8414.0743-.291.3375-.492.6378-.492h2.9839c.2998 0 .5626.2001.6372.4905.1939.7549.5369 2.1831.5369 2.8429 0 .745-.5003 2.7008-.6341 3.2105a.57.57 0 0 1-.112.2225c-.2555.3096-1.088 1.2337-1.9205 1.2337-.833 0-1.666-.9253-1.921-1.2343a.57.57 0 0 1-.1117-.2211C6.5003 12.7052 6 10.7635 6 10" clip-rule="evenodd"/><mask id="d" width="6" height="9" x="6" y="6" maskUnits="userSpaceOnUse" style="mask-type:luminance"><path fill="#fff" fill-rule="evenodd" d="M6 10c0-.645.3437-2.0822.5375-2.8414.0743-.291.3375-.492.6378-.492h2.9839c.2998 0 .5626.2001.6372.4905.1939.7549.5369 2.1831.5369 2.8429 0 .745-.5003 2.7008-.6341 3.2105a.57.57 0 0 1-.112.2225c-.2555.3096-1.088 1.2337-1.9205 1.2337-.833 0-1.666-.9253-1.921-1.2343a.57.57 0 0 1-.1117-.2211C6.5003 12.7052 6 10.7635 6 10" clip-rule="evenodd"/></mask><g stroke="#e1444d" stroke-linecap="square" mask="url(#d)"><path d="M11.333 7.333 6 14m0-6.667L11.333 14"/></g></g></g><defs><clipPath id="a"><path fill="#fff" d="M0 0h28v20H0z"/></clipPath><clipPath id="c"><path fill="#fff" d="M5.3333 6.6667h6v8h-6z"/></clipPath></defs></svg>
